icons/paint-brush-line.svg

<svg xmlns="http://www.w3.org/2000/svg" width="24" height="24" fill="none"><g clip-path="url(#a)"><g><path fill="#121212" d="M5 5V8H19V5H5ZM4 3H20C20.2652 3 20.5196 3.10536 20.7071 3.29289C20.8946 3.48043 21 3.73478 21 4V9C21 9.26522 20.8946 9.51957 20.7071 9.70711C20.5196 9.89464 20.2652 10 20 10H4C3.73478 10 3.48043 9.89464 3.29289 9.70711C3.10536 9.51957 3 9.26522 3 9V4C3 3.73478 3.10536 3.48043 3.29289 3.29289C3.48043 3.10536 3.73478 3 4 3ZM6 12H12C12.2652 12 12.5196 12.1054 12.7071 12.2929C12.8946 12.4804 13 12.7348 13 13V16H14V22H10V16H11V14H5C4.73478 14 4.48043 13.8946 4.29289 13.7071C4.10536 13.5196 4 13.2652 4 13V11H6V12ZM17.732 13.732L19.5 11.964L21.268 13.732C21.6176 14.0817 21.8556 14.5271 21.952 15.0121C22.0484 15.497 21.9989 15.9996 21.8096 16.4564C21.6204 16.9132 21.3 17.3036 20.8889 17.5783C20.4777 17.8529 19.9944 17.9995 19.5 17.9995C19.0056 17.9995 18.5223 17.8529 18.1111 17.5783C17.7 17.3036 17.3796 16.9132 17.1904 16.4564C17.0011 15.9996 16.9516 15.497 17.048 15.0121C17.1444 14.5271 17.3824 14.0817 17.732 13.732Z"/></g></g><defs><clipPath id="a"><rect width="24" height="24" fill="white"/></clipPath></defs></svg>

<svg width="24" height="24" fill="none" xmlns="http://www.w3.org/2000/svg"><g clip-path="url(#a)"><path d="M5 5v3h14V5H5ZM4 3h16a1 1 0 0 1 1 1v5a1 1 0 0 1-1 1H4a1 1 0 0 1-1-1V4a1 1 0 0 1 1-1Zm2 9h6a1 1 0 0 1 1 1v3h1v6h-4v-6h1v-2H5a1 1 0 0 1-1-1v-2h2v1Zm11.732 1.732 1.768-1.768 1.768 1.768a2.5 2.5 0 1 1-3.536 0Z" /></g><defs><clipPath id="a"><path fill="#fff" d="M0 0h24v24H0z"/></clipPath></defs></svg>
